X:1
T:Title
%%score 1 ( 2 3 )
L:1/8
Q:1/4=97
M:4/4
K:Db
V:1 treble nm="Grand Piano, Soprano"
V:2 bass nm="Choir Pad, He’s Mighty to Save"
V:3 bass 
V:1
 [FA]2 [FA][GB] [FA]2 [DF]D | [DB]2 [DB][GB] [FA]4 | [FA]2 [EG][DF] [FA]2 [EG][DF] | %3
w: By~William~James~Kirkpatrick * * * * *|||
 [EA]2 [FA][DF] [CE]4 | [DF]2 [DF][EG] [FA]2 [DF]D | [DB]2 [GB][Gc] [Gd]4 | %6
w: |||
 [Fd]2 [Ac][GB] [FA] [Fd]2 [DF] | [CA]2 [CG][CE] D4 | [FA]2 [FA]>[FA] [FA]4 | %9
w: |||
 [GB]2 [GB]>[GB] [FA]4 | [Ad]2 [Ad][Ad] [=Gd]2 [Gc][Gd] | [Ae]6 z2 | [FA]2 [FA]>[FA] [Fd]4 | %13
w: ||||
 [GB]2 [GB]>[GB] [Gd]4 | [FA]2 [FA][FA] [Gc] [Ge]2 [Ge] | [Fd]8 |] %16
w: |||
V:2
 [D,D]2 [D,D][D,D] [D,D]2 [D,A,][D,F,] | G,2 [G,B,][G,B,] [D,D]4 | %2
 [D,D]2 [D,A,][D,A,] [D,D]2 [D,A,][D,A,] | [C,A,]2 [D,A,][D,A,] [A,,A,]4 | %4
 [D,A,]2 [D,A,][D,A,] [D,D]2 [D,A,][D,F,] | G,2 [G,D][G,D] [G,B,]4 | %6
 [D,A,]2 [D,D][D,D] [D,D] [D,A,]2 [D,A,] | [A,,A,]2 [A,,E,][A,,G,] [D,F,]4 | %8
 [D,D]2 [D,D]>[D,D] [D,D]4 | [G,D]2 [G,D]>[G,D] [D,D]4 | [F,D]2 [F,A,][F,A,] [E,B,]2 [E,B,][E,B,] | %11
 [A,C]2 [A,C]>[A,C] C-[G,C]F,E, | z4 A,2 z2 | [G,D]2 [G,D]>[G,D] [G,B,]4 | %14
 [A,D]2 [A,D][A,D] [A,E] [A,C]2 [A,C] | [D,A,]8 |] %16
V:3
 x8 | x8 | x8 | x8 | x8 | x8 | x8 | x8 | x8 | x8 | x8 | z4 .A,2 z2 | %12
 [D,D]2 [D,D]>[D,D] D,2- [D,D]2 | x8 | x8 | x8 |] %16

